!!!OTL: ES RITT EIN JAEGER WOHLGEMUTH
!!!ARE: Europa, Mitteleuropa, Deutschland
!!!SCT: Z0189
!!!YEM: Copyright 1995, estate of Helmut Schaffrath.
**kern
*ICvox
*Ivox
*M4/4
*k[]
*C:
{4G
=1
4c
4c
4c
8B
8c
=2
4d
4d
4d}
{8c
8d
=3
4e
4d
4e
4e
=4
2d
4c}
{4G
=5
4c
4c
4c
8B
8c
=6
4d
4d
4d}
{8c
8d
=7
4e
4d
4e
4e
=8
2d
4c}
{4e
=9
4d
4d
4d
8c
8d
=10
4e
4e
4e}
{8d
8e
=11
4f
4f
4f
8e
8f
=12
4g
4g
4g}
{4g
=13
2e
4d
4g
=14
2e
4d}
{4B
=15
2c
4G
8G
8G
=16
4A
8A
8A
4B
4B
=17
2.c}
==
!!!AGN: Staende -, Jaeger - Lied
!!!ONB: ESAC (Essen Associative Code) Database: ZUCCAL
!!!AMT: simple quadruple
!!!AIN: vox
!!!EED: Helmut Schaffrath
!!!EEV: 1.0
*-
